!!!OTL: Jia lang yiao jia geng tian lang
!!!ARE: Asia, China,ÿGuangdong, Meixian
!! II, 401
!!!SCT: C1515
!!!YEM: Copyright 1995, estate of Helmut Schaffrath.
**kern
*ICvox
*Ivox
!! Mixed meters:  2/4; 3/4
*M3/4
*k[f#c#g#]
*A:
{16b
16cc#
16cc#
16b
8a
4b
16a
16cc#
=1
*M2/4
16cc#
16b
8a
16a
16b
8cc#
=2
8f#
8f#
8f#
16b
16cc#
=3
8f#
16f#
16e
4f#
=4
8a
4b
8cc#}
=5
{8r
16a
16b
8f#
16b
16a
=6
4.f#}
{16a
16b
=7
8f#
8cc#
8f#
8cc#
=8
16a
16b
8cc#
16b
16cc#
8f#}
=9
{8b
8b
16b
16cc#
8cc#
=10
8b
8b
16a
16b
16b
16a
=11
4f#
8f#
[8a
=12
4.a]
16b
16a
=13
4.f#}
{16a
16cc#
=14
8a
16cc#
16a
16b
16cc#
16cc#
16a
=15
4.b}
{16b
16cc#
=16
16b
16cc#
8cc#
16a
16b
8f#}
=17
{16c#
16f#
8f#
8f#
8f#}
=18
{16b
16a
8a
16a
16b
8b}
=19
{8b
16b
16a
8f#
8f#}
=20
{8a
16a
16b
8f#
16f#
16b
=21
8f#
16a
16b
8f#
[8a
=22
4.a]}
{16a
16cc#
=23
8f#
16cc#
16a
16b
16cc#
16cc#
16a
=24
4.b}
{16cc#
16cc#
=25
8b
16b
16cc#
8f#
8f#}
=26
{8f#
16f#
16a
16b
16cc#
8cc#}
=27
{8f#
16a
16b
8f#
8f#}
=28
{8b
16a
16b
8b
8b}
=29
{8f#
16f#
16a
8b
8b}
=30
{16b
16a
16f#
16a
8b
8b}
=31
{8f#
8f#
8a
16a
16b}
=32
{8a
16a
16b
8f#
16f#
16b
=33
16a
16b
8f#
8.f#
16e
=34
8f#
4.f#}
==
!!!AGN: Shange, Dieban shange
!!!AMT: irregular
!!!AIN: vox
!!!EED: Helmut Schaffrath
!!!EEV: 1.0
*-
!!!ONB: Tied note syntax fixed by Craig Sapp, 2004/05/03/
